dist/intermediate-svg/mileage.svg

<?xml version="1.0" encoding="utf-8"?><svg width="24" height="24" fill="none" xmlns="http://www.w3.org/2000/svg" viewBox="0 0 24 24"><path d="M4 14.5C4 10.5 6 6.00005 12 6C18 5.99995 20 10.5 20 14.5" stroke="#333"/><path d="M10.6869 16.6465L10.1905 16.7063L10.2702 17.3682L10.8833 17.1063L10.6869 16.6465ZM10.3714 14.0275L9.99349 13.7001L9.84845 13.8675L9.87494 14.0874L10.3714 14.0275ZM15.8472 7.70848L16.3198 7.872L15.4694 7.38104L15.8472 7.70848ZM13.1127 15.6103L13.3091 16.0701L13.5128 15.9831L13.5852 15.7738L13.1127 15.6103ZM11.1833 16.5867L10.8678 13.9677L9.87494 14.0874L10.1905 16.7063L11.1833 16.5867ZM10.7492 14.355L16.2251 8.03592L15.4694 7.38104L9.99349 13.7001L10.7492 14.355ZM15.3747 7.54496L12.6402 15.4468L13.5852 15.7738L16.3198 7.872L15.3747 7.54496ZM12.9163 15.1505L10.4905 16.1867L10.8833 17.1063L13.3091 16.0701L12.9163 15.1505Z" fill="#0094FF"/></svg>

<?xml version="1.0" encoding="utf-8"?><svg width="24" height="24" fill="none" xmlns="http://www.w3.org/2000/svg" viewBox="0 0 24 24"><path d="M4 14.5c0-4 2-8.5 8-8.5s8 4.5 8 8.5" stroke="#333"/><path d="M10.687 16.646l-.496.06.08.662.612-.262-.196-.46zm-.316-2.619l-.378-.327-.145.168.027.22.496-.06zm5.476-6.319l.473.164-.85-.491.377.327zm-2.734 7.902l.196.46.204-.087.072-.21-.472-.163zm-1.93.977l-.315-2.62-.993.12.316 2.62.992-.12zm-.434-2.232l5.476-6.32-.756-.654-5.476 6.32.756.654zm4.626-6.81l-2.735 7.902.945.327 2.735-7.902-.945-.327zm-2.459 7.605l-2.425 1.037.392.92 2.426-1.037-.393-.92z" fill="#0094FF"/></svg>
